icons/svg/code-less-than-or-equal.svg

﻿<?xml version="1.0" encoding="utf-8"?>
<!DOCTYPE svg PUBLIC "-//W3C//DTD SVG 1.1//EN" "http://www.w3.org/Graphics/SVG/1.1/DTD/svg11.dtd">
<svg xmlns="http://www.w3.org/2000/svg" xmlns:xlink="http://www.w3.org/1999/xlink" version="1.1" baseProfile="full" width="24" height="24" viewBox="0 0 24.00 24.00" enable-background="new 0 0 24.00 24.00" xml:space="preserve">
	<path fill="#0D0E0E" fill-opacity="1" stroke-linejoin="round" d="M 13,13L 18,13L 18,15L 13,15M 13,9.00195L 18,9.00195L 18,11.002L 13,11.002M 10.0918,7.40625L 11.5059,8.82031L 8.32227,12.002L 11.5059,15.1836L 10.0918,16.5977L 5.49414,12.002M 5,3C 3.894,3 3,3.896 3,5L 3,19C 3,20.104 3.894,21 5,21L 19,21C 20.103,21 21,20.104 21,19L 21,5C 21,3.896 20.103,3 19,3L 5,3 Z "/>
</svg>

<svg xmlns="http://www.w3.org/2000/svg" version="1.1" baseProfile="full" width="24" height="24" viewBox="0 0 24.00 24.00" xml:space="preserve"><path fill="#0D0E0E" fill-opacity="1" stroke-linejoin="round" d="M13 13h5v2h-5m0-5.998h5v2h-5m-2.908-3.596l1.414 1.414-3.184 3.182 3.184 3.182-1.414 1.414-4.598-4.596M5 3c-1.106 0-2 .896-2 2v14c0 1.104.894 2 2 2h14c1.103 0 2-.896 2-2V5c0-1.104-.897-2-2-2H5z"/></svg>
